X:120
T:Corsair Hornpipe. JJo.120
S:J.Jones MS,1801,N.Shrops.
N:Written in F it would appear to be actually in C. Nevertheless, the
N:flattened B notes in the B part gives it something of an edge.
A:N Shropshire
Z:Neil Brookes 2006
M:2/4
L:1/16
Q:1/4=90
K:F
gf|efdf ccde|fgef ddef|egag egag|fgeed2 gf|!
efdf ccde|fgef ddef|egfe dfed|c2c2c2::!
GA|d2ef egde|eceg c’2c’2|bbaa ggff|egfe d2gf|!
efde ccde|fgef ddef|egfe dfed|c2c2[c’2c2]:|

